icons/evolvere-blue-folders-flat-vivid-dark-fallback/apps/64/space-usage.svg

<?xml version="1.0" encoding="UTF-8" standalone="no"?>
<!-- Created with Inkscape (http://www.inkscape.org/) -->

<svg
   xmlns:dc="http://purl.org/dc/elements/1.1/"
   xmlns:cc="http://creativecommons.org/ns#"
   xmlns:rdf="http://www.w3.org/1999/02/22-rdf-syntax-ns#"
   xmlns:svg="http://www.w3.org/2000/svg"
   xmlns="http://www.w3.org/2000/svg"
   xmlns:xlink="http://www.w3.org/1999/xlink"
   xmlns:sodipodi="http://sodipodi.sourceforge.net/DTD/sodipodi-0.dtd"
   xmlns:inkscape="http://www.inkscape.org/namespaces/inkscape"
   width="64"
   height="64"
   id="svg13094"
   version="1.1"
   inkscape:version="0.48.4 r9939"
   sodipodi:docname="space-usage.svg">
  <sodipodi:namedview
     id="base"
     pagecolor="#ffffff"
     bordercolor="#666666"
     borderopacity="1.0"
     inkscape:pageopacity="0"
     inkscape:pageshadow="2"
     inkscape:zoom="11.313709"
     inkscape:cx="38.517318"
     inkscape:cy="31.778511"
     inkscape:document-units="px"
     inkscape:current-layer="svg13094"
     showgrid="true"
     inkscape:snap-bbox="true"
     inkscape:bbox-paths="true"
     inkscape:bbox-nodes="true"
     inkscape:snap-bbox-edge-midpoints="true"
     inkscape:snap-bbox-midpoints="true"
     inkscape:object-paths="true"
     inkscape:snap-intersection-paths="true"
     inkscape:object-nodes="true"
     inkscape:snap-smooth-nodes="true"
     inkscape:snap-midpoints="true"
     inkscape:snap-object-midpoints="true"
     inkscape:snap-center="true"
     showguides="false"
     inkscape:guide-bbox="true"
     inkscape:window-width="1920"
     inkscape:window-height="1025"
     inkscape:window-x="-2"
     inkscape:window-y="32"
     inkscape:window-maximized="1"
     inkscape:snap-global="true"
     fit-margin-top="0"
     fit-margin-left="0"
     fit-margin-right="0"
     fit-margin-bottom="0"
     showborder="true"
     inkscape:showpageshadow="false"
     inkscape:snap-page="true">
    <inkscape:grid
       type="xygrid"
       id="grid3075"
       empspacing="5"
       visible="true"
       enabled="true"
       snapvisiblegridlinesonly="true"
       originx="1.6362304e-08px"
       originy="18px" />
    <sodipodi:guide
       orientation="0,1"
       position="-11,30"
       id="guide9148" />
    <sodipodi:guide
       orientation="1,0"
       position="32,70"
       id="guide9150" />
  </sodipodi:namedview>
  <defs
     id="defs13096">
    <radialGradient
       inkscape:collect="always"
       xlink:href="#linearGradient3094-6"
       id="radialGradient3886-6"
       cx="30.739782"
       cy="17.037395"
       fx="30.739782"
       fy="17.037395"
       r="32"
       gradientTransform="matrix(6.8856667e-8,1.5625001,-1.4375,6.3348129e-8,57.491254,-34.030912)"
       gradientUnits="userSpaceOnUse" />
    <linearGradient
       id="linearGradient3094-6">
      <stop
         offset="0"
         style="stop-color:#bdc4cf;stop-opacity:1;"
         id="stop3096-9" />
      <stop
         offset="1"
         style="stop-color:#a1a8ba;stop-opacity:1;"
         id="stop3104-3" />
    </linearGradient>
  </defs>
  <metadata
     id="metadata13099">
    <rdf:RDF>
      <cc:Work
         rdf:about="">
        <dc:format>image/svg+xml</dc:format>
        <dc:type
           rdf:resource="http://purl.org/dc/dcmitype/StillImage" />
        <dc:title />
      </cc:Work>
    </rdf:RDF>
  </metadata>
  <path
     id="path6538"
     d="m 0,4 0,30 0,28 2,2 30,0 30,0 2,-2 L 64,34 64,4 32,4 0,4 z"
     style="color:#000000;fill:#aeb4c3;fill-opacity:1;fill-rule:nonzero;stroke:none;stroke-width:2.28571415;marker:none;visibility:visible;display:inline;overflow:visible;enable-background:accumulate"
     inkscape:connector-curvature="0" />
  <path
     inkscape:connector-curvature="0"
     style="color:#000000;fill:#e7ecf0;fill-opacity:1;fill-rule:nonzero;stroke:none;marker:none;visibility:visible;display:inline;overflow:visible;enable-background:accumulate"
     d="M 2,0 0,1 0,4 19.5625,4 39.125,4 64,4 64,1 62,0 39.125,0 19.5625,0 2,0 z"
     id="path6688" />
  <g
     id="g3043"
     inkscape:export-filename="folder.png"
     inkscape:export-xdpi="90"
     inkscape:export-ydpi="90"
     transform="translate(-0.62500009,0.082283)" />
  <g
     id="scalable"
     transform="matrix(1.0385892,0,0,1.0385892,1214.7222,1878.8121)"
     inkscape:label="#g3701"
     style="fill:#ffffff" />
  <path
     inkscape:connector-curvature="0"
     style="fill:#ccd1db;fill-opacity:1;stroke:none;stroke-width:1;marker:none"
     id="path3028"
     d="M 64,6 62,4 64,3 z" />
  <g
     id="g3898">
    <path
       sodipodi:type="arc"
       style="color:#000000;fill:#db9022;fill-opacity:1;fill-rule:nonzero;stroke:none;stroke-width:2.28571415000000000;marker:none;visibility:visible;display:inline;overflow:visible;enable-background:accumulate"
       id="path3825"
       sodipodi:cx="64"
       sodipodi:cy="64"
       sodipodi:rx="5"
       sodipodi:ry="5"
       d="m 69,64 a 5,5 0 0 1 -0.170371,1.294095 L 64,64 z"
       transform="matrix(12,0,0,12,-768,-764)"
       sodipodi:start="0"
       sodipodi:end="0.26179939" />
    <path
       sodipodi:end="0.78539816"
       sodipodi:start="0.66055862"
       transform="matrix(12,0,0,12,-768,-764)"
       d="m 67.948248,67.06779 a 5,5 0 0 1 -0.412714,0.467744 L 64,64 z"
       sodipodi:ry="5"
       sodipodi:rx="5"
       sodipodi:cy="64"
       sodipodi:cx="64"
       id="path3011"
       style="color:#000000;fill:#b38a44;fill-opacity:1;fill-rule:nonzero;stroke:none;stroke-width:2.28571415000000000;marker:none;visibility:visible;display:inline;overflow:visible;enable-background:accumulate"
       sodipodi:type="arc" />
    <path
       sodipodi:end="0.37301601"
       sodipodi:start="0"
       sodipodi:type="arc"
       style="color:#000000;fill:#3c94a7;fill-opacity:1;fill-rule:nonzero;stroke:none;stroke-width:2.28571415000000000;marker:none;visibility:visible;display:inline;overflow:visible;enable-background:accumulate"
       id="path3037"
       sodipodi:cx="64"
       sodipodi:cy="64"
       sodipodi:rx="5"
       sodipodi:ry="5"
       d="m 69,64 a 5,5 0 0 1 -0.343838,1.822128 L 64,64 z"
       transform="matrix(10,0,0,10,-640,-636)" />
    <path
       sodipodi:end="0.78539816"
       sodipodi:start="0.52359878"
       sodipodi:type="arc"
       style="color:#000000;fill:#d2b237;fill-opacity:1;fill-rule:nonzero;stroke:none;stroke-width:2.28571415000000000;marker:none;visibility:visible;display:inline;overflow:visible;enable-background:accumulate"
       id="path3039"
       sodipodi:cx="64"
       sodipodi:cy="64"
       sodipodi:rx="5"
       sodipodi:ry="5"
       d="m 68.330127,66.5 a 5,5 0 0 1 -0.794593,1.035534 L 64,64 z"
       transform="matrix(10,0,0,10,-640,-636)" />
    <path
       sodipodi:end="1.3089969"
       sodipodi:start="1.2448214"
       sodipodi:type="arc"
       style="color:#000000;fill:#77953b;fill-opacity:1;fill-rule:nonzero;stroke:none;stroke-width:2.28571415000000000;marker:none;visibility:visible;display:inline;overflow:visible;enable-background:accumulate"
       id="path3821"
       sodipodi:cx="64"
       sodipodi:cy="64"
       sodipodi:rx="5"
       sodipodi:ry="5"
       d="m 65.601163,68.736695 a 5,5 0 0 1 -0.307068,0.09293 L 64,64 z"
       transform="matrix(10,0,0,10,-640,-636)" />
    <path
       transform="matrix(10,0,0,10,-640,-636)"
       d="M 65.294095,68.829629 A 5,5 0 0 1 64,69 l 0,-5 z"
       sodipodi:ry="5"
       sodipodi:rx="5"
       sodipodi:cy="64"
       sodipodi:cx="64"
       id="path3043"
       style="color:#000000;fill:#d45ab4;fill-opacity:1;fill-rule:nonzero;stroke:none;stroke-width:2.28571415000000000;marker:none;visibility:visible;display:inline;overflow:visible;enable-background:accumulate"
       sodipodi:type="arc"
       sodipodi:start="1.3089969"
       sodipodi:end="1.5707963" />
    <path
       sodipodi:end="1.2441795"
       sodipodi:start="1.0471976"
       sodipodi:type="arc"
       style="color:#000000;fill:#d2b237;fill-opacity:1;fill-rule:nonzero;stroke:none;stroke-width:2.28571415000000000;marker:none;visibility:visible;display:inline;overflow:visible;enable-background:accumulate"
       id="path3041"
       sodipodi:cx="64"
       sodipodi:cy="64"
       sodipodi:rx="5"
       sodipodi:ry="5"
       d="m 66.5,68.330127 a 5,5 0 0 1 -0.895797,0.405539 L 64,64 z"
       transform="matrix(10,0,0,10,-640,-636)" />
    <path
       sodipodi:end="0.52359878"
       sodipodi:start="0.37227403"
       sodipodi:type="arc"
       style="color:#000000;fill:#c3486c;fill-opacity:1;fill-rule:nonzero;stroke:none;stroke-width:2.28571415000000000;marker:none;visibility:visible;display:inline;overflow:visible;enable-background:accumulate"
       id="path3022"
       sodipodi:cx="64"
       sodipodi:cy="64"
       sodipodi:rx="5"
       sodipodi:ry="5"
       d="M 68.657513,65.818673 A 5,5 0 0 1 68.330127,66.5 L 64,64 z"
       transform="matrix(10,0,0,10,-640,-636)" />
    <path
       transform="matrix(8,0,0,8,-512,-508)"
       d="m 69,64 a 5,5 0 0 1 -0.669873,2.5 L 64,64 z"
       sodipodi:ry="5"
       sodipodi:rx="5"
       sodipodi:cy="64"
       sodipodi:cx="64"
       id="path3026"
       style="color:#000000;fill:#87c443;fill-opacity:1;fill-rule:nonzero;stroke:none;stroke-width:2.28571415000000000;marker:none;visibility:visible;display:inline;overflow:visible;enable-background:accumulate"
       sodipodi:type="arc"
       sodipodi:start="0"
       sodipodi:end="0.52359878" />
    <path
       transform="matrix(8,0,0,8,-512,-508)"
       d="m 68.330127,66.5 a 5,5 0 0 1 -0.794593,1.035534 L 64,64 z"
       sodipodi:ry="5"
       sodipodi:rx="5"
       sodipodi:cy="64"
       sodipodi:cx="64"
       id="path3029"
       style="color:#000000;fill:#db9022;fill-opacity:1;fill-rule:nonzero;stroke:none;stroke-width:2.28571415000000000;marker:none;visibility:visible;display:inline;overflow:visible;enable-background:accumulate"
       sodipodi:type="arc"
       sodipodi:start="0.52359878"
       sodipodi:end="0.78539816" />
    <path
       sodipodi:end="1.3089969"
       sodipodi:start="1.0471976"
       sodipodi:type="arc"
       style="color:#000000;fill:#d15a31;fill-opacity:1;fill-rule:nonzero;stroke:none;stroke-width:2.28571415000000000;marker:none;visibility:visible;display:inline;overflow:visible;enable-background:accumulate"
       id="path3823"
       sodipodi:cx="64"
       sodipodi:cy="64"
       sodipodi:rx="5"
       sodipodi:ry="5"
       d="m 66.5,68.330127 a 5,5 0 0 1 -1.205905,0.499502 L 64,64 z"
       transform="matrix(8,0,0,8,-512,-508)" />
    <path
       transform="matrix(8,0,0,8,-512,-508)"
       d="M 67.535534,67.535534 A 5,5 0 0 1 66.5,68.330127 L 64,64 z"
       sodipodi:ry="5"
       sodipodi:rx="5"
       sodipodi:cy="64"
       sodipodi:cx="64"
       id="path3033"
       style="color:#000000;fill:#b38a44;fill-opacity:1;fill-rule:nonzero;stroke:none;stroke-width:2.28571415000000000;marker:none;visibility:visible;display:inline;overflow:visible;enable-background:accumulate"
       sodipodi:type="arc"
       sodipodi:start="0.78539816"
       sodipodi:end="1.0471976" />
    <path
       sodipodi:end="1.5707963"
       sodipodi:start="1.3089969"
       sodipodi:type="arc"
       style="color:#000000;fill:#c73f68;fill-opacity:1;fill-rule:nonzero;stroke:none;stroke-width:2.28571415000000000;marker:none;visibility:visible;display:inline;overflow:visible;enable-background:accumulate"
       id="path3019"
       sodipodi:cx="64"
       sodipodi:cy="64"
       sodipodi:rx="5"
       sodipodi:ry="5"
       d="M 65.294095,68.829629 A 5,5 0 0 1 64,69 l 0,-5 z"
       transform="matrix(8,0,0,8,-512,-508)" />
    <path
       transform="matrix(6,0,0,6,-384,-380)"
       d="m 69,64 a 5,5 0 0 1 -1.464466,3.535534 L 64,64 z"
       sodipodi:ry="5"
       sodipodi:rx="5"
       sodipodi:cy="64"
       sodipodi:cx="64"
       id="path3024"
       style="color:#000000;fill:#397abb;fill-opacity:1;fill-rule:nonzero;stroke:none;stroke-width:2.28571415000000000;marker:none;visibility:visible;display:inline;overflow:visible;enable-background:accumulate"
       sodipodi:type="arc"
       sodipodi:start="0"
       sodipodi:end="0.78539816" />
    <path
       sodipodi:end="1.5707963"
       sodipodi:start="0.78539816"
       sodipodi:type="arc"
       style="color:#000000;fill:#bf2a2a;fill-opacity:1;fill-rule:nonzero;stroke:none;stroke-width:2.28571415000000000;marker:none;visibility:visible;display:inline;overflow:visible;enable-background:accumulate"
       id="path3016"
       sodipodi:cx="64"
       sodipodi:cy="64"
       sodipodi:rx="5"
       sodipodi:ry="5"
       d="M 67.535534,67.535534 A 5,5 0 0 1 64,69 l 0,-5 z"
       transform="matrix(6,0,0,6,-384,-380)" />
    <path
       sodipodi:end="1.5707963"
       sodipodi:start="0"
       sodipodi:type="arc"
       style="color:#000000;fill:#aeb4c3;fill-opacity:1;fill-rule:nonzero;stroke:none;stroke-width:0.57142853999999998;marker:none;visibility:visible;display:inline;overflow:visible;enable-background:accumulate"
       id="path3013"
       sodipodi:cx="64"
       sodipodi:cy="64"
       sodipodi:rx="5"
       sodipodi:ry="5"
       d="m 69,64 a 5,5 0 0 1 -5,5 l 0,-5 z"
       transform="matrix(4,0,0,4,-256,-252)" />
    <rect
       y="0"
       x="30"
       height="4"
       width="10"
       id="rect3817"
       style="color:#000000;fill:#b9ff6e;fill-opacity:1;fill-rule:nonzero;stroke:none;stroke-width:2.28571415000000000;marker:none;visibility:visible;display:inline;overflow:visible;enable-background:accumulate" />
    <rect
       y="0"
       x="-50"
       height="4"
       width="10"
       id="rect3819"
       style="color:#000000;fill:#5cd0ea;fill-opacity:1;fill-rule:nonzero;stroke:none;stroke-width:2.28571415000000000;marker:none;visibility:visible;display:inline;overflow:visible;enable-background:accumulate"
       transform="scale(-1,1)" />
    <rect
       style="color:#000000;fill:#ffd273;fill-opacity:1;fill-rule:nonzero;stroke:none;stroke-width:2.28571415000000000;marker:none;visibility:visible;display:inline;overflow:visible;enable-background:accumulate"
       id="rect3815"
       width="10"
       height="4"
       x="50"
       y="0" />
    <rect
       transform="scale(-1,1)"
       y="0"
       x="-30"
       height="4"
       width="10"
       id="rect3813"
       style="color:#000000;fill:#76bbff;fill-opacity:1;fill-rule:nonzero;stroke:none;stroke-width:2.28571415000000000;marker:none;visibility:visible;display:inline;overflow:visible;enable-background:accumulate" />
  </g>
  <path
     style="fill:#f2f5f7;fill-opacity:1;fill-rule:nonzero;stroke-width:1;stroke-linecap:butt;stroke-linejoin:miter;stroke-miterlimit:4;stroke-opacity:1;stroke-dasharray:none;stroke-dashoffset:0"
     d="M 0,3 0,6 2,4 z"
     id="path4298"
     inkscape:connector-curvature="0"
     sodipodi:nodetypes="cccc" />
</svg>

<svg xmlns="http://www.w3.org/2000/svg" viewBox="0 0 64 64"><g color="#000"><path d="m0 4v30 28l2 2h30 30l2-2v-28-30h-32-32" fill="#aeb4c3"/><path d="m2 0l-2 1v3h19.563 19.563 24.875v-3l-2-1h-22.875-19.563-17.563" fill="#e7ecf0"/></g><path d="m64 6l-2-2 2-1z" fill="#ccd1db"/><g color="#000"><g transform="matrix(12 0 0 12-768-764)"><path d="m69 64a5 5 0 0 1 -.170371 1.294095L64 64z" fill="#db9022"/><path d="m67.948248 67.06779a5 5 0 0 1 -.412714 .467744L64 64z" fill="#b38a44"/></g><g transform="matrix(10 0 0 10-640-636)"><path d="m69 64a5 5 0 0 1 -.343838 1.822128L64 64z" fill="#3c94a7"/><path d="m68.33013 66.5a5 5 0 0 1 -.794593 1.035534L64 64z" fill="#d2b237"/><path d="m65.60116 68.73669a5 5 0 0 1 -.307068 .09293L64 64z" fill="#77953b"/><path d="M65.29409 68.829629A5 5 0 0 1 64 69v-5z" fill="#d45ab4"/><path d="m66.5 68.33013a5 5 0 0 1 -.895797 .405539L64 64z" fill="#d2b237"/><path d="M68.65751 65.818673A5 5 0 0 1 68.33013 66.5L64 64z" fill="#c3486c"/></g><g transform="matrix(8 0 0 8-512-508)"><path d="m69 64a5 5 0 0 1 -.669873 2.5L64 64z" fill="#87c443"/><path d="m68.33013 66.5a5 5 0 0 1 -.794593 1.035534L64 64z" fill="#db9022"/><path d="m66.5 68.33013a5 5 0 0 1 -1.205905 .499502L64 64z" fill="#d15a31"/><path d="M67.53553 67.53553A5 5 0 0 1 66.5 68.33013L64 64z" fill="#b38a44"/><path d="M65.29409 68.829629A5 5 0 0 1 64 69v-5z" fill="#c73f68"/></g><g transform="matrix(6 0 0 6-384-380)"><path d="m69 64a5 5 0 0 1 -1.464466 3.535534L64 64z" fill="#397abb"/><path d="M67.53553 67.53553A5 5 0 0 1 64 69v-5z" fill="#bf2a2a"/></g><path d="m69 64a5 5 0 0 1 -5 5v-5z" transform="matrix(4 0 0 4-256-252)" fill="#aeb4c3"/><path fill="#b9ff6e" d="m30 0h10v4h-10z"/><path transform="scale(-1 1)" fill="#5cd0ea" d="m-50 0h10v4h-10z"/><path fill="#ffd273" d="m50 0h10v4h-10z"/><path transform="scale(-1 1)" fill="#76bbff" d="m-30 0h10v4h-10z"/></g><path d="m0 3v3l2-2z" fill="#f2f5f7"/></svg>
